public/shapes/characters/394.svg

<?xml version="1.0" encoding="UTF-8"?>
<svg width="53.7px" height="121.05px" version="1.1" xmlns="http://www.w3.org/2000/svg" xmlns:cc="http://creativecommons.org/ns#" xmlns:dc="http://purl.org/dc/elements/1.1/" xmlns:rdf="http://www.w3.org/1999/02/22-rdf-syntax-ns#">
 <metadata>
  <rdf:RDF>
   <cc:Work rdf:about="">
    <dc:format>image/svg+xml</dc:format>
    <dc:type rdf:resource="http://purl.org/dc/dcmitype/StillImage"/>
    <dc:title/>
   </cc:Work>
  </rdf:RDF>
 </metadata>
 <path d="m14.384 56.965 25.207-0.14241 11.678-15.665-0.71206-24.21-44.005-0.28482-3.1331 13.956 3.1331 13.244z" fill="#fff"/>
 <g transform="translate(26.85 60.5)" fill-rule="evenodd">
  <path d="m11.65-5.55 5.7-7.7q-8.7 2.85-18.95 2.05-7.15-0.55-14.05-2.7l6.05 8.35h8.85l-0.9-2.65h5.85l-0.9 2.65h8.35m-28.75-35.85h-3.1v21.3l1.7 2.3q6.05 2.45 13.95 3.5 14.15 1.8 24.95-3.15l1.85-2.45 0.05-21.45-22.15 3.9-17.25-3.95m-7.6-2.25q0-0.85 0.55-1.5l1.3-0.75 19.5-7.4 3.95-7.2 3.95 6.95 21.35 7.85h-0.4q1.35 0.6 1.35 2.05l-0.1 24.6q0 0.75-0.45 1.25l-11.65 15.9q-0.75 0.9-1.85 0.9h-11.95l4.75 61.55h-32.45v-72.2h7.2l-4.6-6.35q-0.45-0.6-0.45-1.35v-24.3"/>
  <path d="m-16.95-29.85q-0.75-0.15-1.15-0.75-0.4-0.65-0.25-1.4l0.8-1.15 1.35-0.25 16.7 3.5 17.6-6 1.4 0.1q0.7 0.35 0.9 1.05 0.25 0.7-0.05 1.4-0.35 0.65-1.05 0.9l-18.1 6.15-0.95 0.05-17.2-3.6"/>
  <path d="m-10-27.8q1.15 0 1.9 0.8 0.8 0.8 0.8 1.9 0 1.15-0.8 1.9-0.75 0.8-1.9 0.8-1.1 0-1.9-0.8-0.8-0.75-0.8-1.9 0-1.1 0.8-1.9t1.9-0.8"/>
  <path d="m11.9-27.8q1.15 0 1.9 0.8 0.8 0.8 0.8 1.9 0 1.15-0.8 1.9-0.75 0.8-1.9 0.8-1.1 0-1.85-0.8-0.8-0.8-0.8-1.9t0.8-1.9q0.75-0.8 1.85-0.8"/>
 </g>
</svg>

<?xml version="1.0" encoding="UTF-8" standalone="no"?>
<svg xmlns:xlink="http://www.w3.org/1999/xlink" height="121.05px" width="53.7px" xmlns="http://www.w3.org/2000/svg">
  <g transform="matrix(1.0, 0.0, 0.0, 1.0, 26.85, 60.5)">
    <path d="M11.65 -5.55 L17.35 -13.25 Q8.65 -10.4 -1.6 -11.2 -8.75 -11.75 -15.65 -13.9 L-9.6 -5.55 -0.75 -5.55 -1.65 -8.2 4.2 -8.2 3.3 -5.55 11.65 -5.55 M-17.1 -41.4 L-20.2 -41.4 -20.2 -20.1 -18.5 -17.8 Q-12.45 -15.35 -4.55 -14.3 9.6 -12.5 20.4 -17.45 L22.25 -19.9 22.3 -41.35 0.15 -37.45 -17.1 -41.4 M-24.7 -43.65 Q-24.7 -44.5 -24.15 -45.15 L-22.85 -45.9 -3.35 -53.3 0.6 -60.5 4.55 -53.55 25.9 -45.7 25.5 -45.7 Q26.85 -45.1 26.85 -43.65 L26.75 -19.05 Q26.75 -18.3 26.3 -17.8 L14.65 -1.9 Q13.9 -1.0 12.8 -1.0 L0.85 -1.0 5.6 60.55 -26.85 60.55 -26.85 -11.65 -19.65 -11.65 -24.25 -18.0 Q-24.7 -18.6 -24.7 -19.35 L-24.7 -43.65" fill="#000000" fill-rule="evenodd" stroke="none"/>
    <path d="M-16.95 -29.85 Q-17.7 -30.0 -18.1 -30.6 -18.5 -31.25 -18.35 -32.0 L-17.55 -33.15 -16.2 -33.4 0.5 -29.9 18.1 -35.9 19.5 -35.8 Q20.2 -35.45 20.4 -34.75 20.65 -34.05 20.35 -33.35 20.0 -32.7 19.3 -32.45 L1.2 -26.3 0.25 -26.25 -16.95 -29.85" fill="#000000" fill-rule="evenodd" stroke="none"/>
    <path d="M-10.0 -27.8 Q-8.85 -27.8 -8.1 -27.0 -7.3 -26.2 -7.3 -25.1 -7.3 -23.95 -8.1 -23.2 -8.85 -22.4 -10.0 -22.4 -11.1 -22.4 -11.9 -23.2 -12.7 -23.95 -12.7 -25.1 -12.7 -26.2 -11.9 -27.0 -11.1 -27.8 -10.0 -27.8" fill="#000000" fill-rule="evenodd" stroke="none"/>
    <path d="M11.9 -27.8 Q13.05 -27.8 13.8 -27.0 14.6 -26.2 14.6 -25.1 14.6 -23.95 13.8 -23.2 13.05 -22.4 11.9 -22.4 10.8 -22.4 10.05 -23.2 9.25 -24.0 9.25 -25.1 9.25 -26.2 10.05 -27.0 10.8 -27.8 11.9 -27.8" fill="#000000" fill-rule="evenodd" stroke="none"/>
  </g>
</svg>
